X: 165
T: Chuse de geshou
%%abc-version 2.0
%%abcx-abcm2ps-target-version 5.9.1 (29 Sep 2008)
%%abc-creator hum2abc beta
%%abcx-conversion-date 2013/10/02 07:44:27
%%abc-edited-by Helmut Schaffrath
%%humdrum-veritas 43312550
%%humdrum-veritas-data 382421374
%%continueall 1
%%barnumbers 0
L: 1/8
M: 4/4
K: Bb
c c B c/ c/ d B [I:setbarnb 1]| 
c6-c d | 
G G/ G/ B c/ B/G4 | 
B2B2c2c G | 
B> c F G E C C/ D/ D/ B,/ | 
C8 | 
[M:3/4]c c B c d/ B/ c | 
[M:4/4]c6-c d | 
G G B B/ G/G4 | 
B2B2c c/ e/ G G | 
B B/ B/ c c d d/ B/ G G | 
[M:3/4]F F/ G/ E C D B, | 
[M:4/4]C8 | 
B2B2c c/ e/ G G | 
B B/ B/ c c d d/ B/ G G | 
[M:3/4]F F/ G/ E C D B, | 
C8 |]  



